src/Resources/svg/admin/gear.svg

<?xml version="1.0" encoding="UTF-8"?>
<svg width="510px" height="512px" viewBox="0 0 510 512" version="1.1" xmlns="http://www.w3.org/2000/svg" xmlns:xlink="http://www.w3.org/1999/xlink">
    <!-- Generator: Sketch 55.2 (78181) - https://sketchapp.com -->
    <title>Icon_Settings</title>
    <desc>Created with Sketch.</desc>
    <g id="Page-1" stroke="none" stroke-width="1" fill="none" fill-rule="evenodd">
        <g id="Artboard" fill="#000000">
            <path d="M449.634992,281.088 C450.683133,272.896 451.469239,264.704 451.469239,256 C451.469239,247.296 450.683133,239.104 449.634992,230.912 L504.924432,188.672 C509.903102,184.832 511.213279,177.92 508.068855,172.288 L455.661803,83.712 C452.51738,78.08 445.442428,76.032 439.677653,78.08 L374.430873,103.68 C360.805039,93.44 346.131065,84.992 330.146914,78.592 L320.189574,10.752 C319.403468,4.608 313.900728,0 307.349846,0 L202.535742,0 C195.98486,0 190.48212,4.608 189.696014,10.752 L179.738674,78.592 C163.754523,84.992 149.080549,93.696 135.454715,103.68 L70.2079354,78.08 C64.1811245,75.776 57.3682077,78.08 54.2237846,83.712 L1.81673249,172.288 C-1.5897259,177.92 -0.0175143338,184.832 4.96115561,188.672 L60.2505955,230.912 C59.2024545,239.104 58.4163487,247.552 58.4163487,256 C58.4163487,264.448 59.2024545,272.896 60.2505955,281.088 L4.96115561,323.328 C-0.0175143338,327.168 -1.32769064,334.08 1.81673249,339.712 L54.2237846,428.288 C57.3682077,433.92 64.4431597,435.968 70.2079354,433.92 L135.454715,408.32 C149.080549,418.56 163.754523,427.008 179.738674,433.408 L189.696014,501.248 C190.48212,507.392 195.98486,512 202.535742,512 L307.349846,512 C313.900728,512 319.403468,507.392 320.189574,501.248 L330.146914,433.408 C346.131065,427.008 360.805039,418.304 374.430873,408.32 L439.677653,433.92 C445.704464,436.224 452.51738,433.92 455.661803,428.288 L508.068855,339.712 C511.213279,334.08 509.903102,327.168 504.924432,323.328 L449.634992,281.088 L449.634992,281.088 Z M254.942794,345.6 C204.369989,345.6 163.230453,305.408 163.230453,256 C163.230453,206.592 204.369989,166.4 254.942794,166.4 C305.515599,166.4 346.655135,206.592 346.655135,256 C346.655135,305.408 305.515599,345.6 254.942794,345.6 L254.942794,345.6 Z" id="Icon_Settings"></path>
        </g>
    </g>
</svg>

<svg width="510" height="512" xmlns="http://www.w3.org/2000/svg"><path d="M449.635 281.088c1.048-8.192 1.834-16.384 1.834-25.088s-.786-16.896-1.834-25.088l55.29-42.24c4.978-3.84 6.288-10.752 3.144-16.384l-52.407-88.576c-3.145-5.632-10.22-7.68-15.984-5.632l-65.247 25.6c-13.626-10.24-28.3-18.688-44.284-25.088l-9.957-67.84C319.403 4.608 313.9 0 307.35 0H202.536c-6.551 0-12.054 4.608-12.84 10.752l-9.957 67.84c-15.984 6.4-30.658 15.104-44.284 25.088l-65.247-25.6c-6.027-2.304-12.84 0-15.984 5.632L1.817 172.288c-3.407 5.632-1.835 12.544 3.144 16.384l55.29 42.24c-1.049 8.192-1.835 16.64-1.835 25.088s.786 16.896 1.835 25.088l-55.29 42.24c-4.979 3.84-6.289 10.752-3.144 16.384l52.407 88.576c3.144 5.632 10.22 7.68 15.984 5.632l65.247-25.6c13.626 10.24 28.3 18.688 44.284 25.088l9.957 67.84c.786 6.144 6.289 10.752 12.84 10.752H307.35c6.55 0 12.053-4.608 12.84-10.752l9.957-67.84c15.984-6.4 30.658-15.104 44.284-25.088l65.247 25.6c6.026 2.304 12.84 0 15.984-5.632l52.407-88.576c3.144-5.632 1.834-12.544-3.145-16.384l-55.289-42.24zM254.943 345.6c-50.573 0-91.713-40.192-91.713-89.6 0-49.408 41.14-89.6 91.713-89.6 50.573 0 91.712 40.192 91.712 89.6 0 49.408-41.14 89.6-91.712 89.6z" fill-rule="evenodd"/></svg>
